agir/front/components/genericComponents/logos/action-populaire.svg

<svg width="127" height="48" viewBox="0 0 127 48" fill="none" xmlns="http://www.w3.org/2000/svg">
  <path d="M50.6755 19.9447H47.0237L46.4383 21.6744H43.9434L47.4837 11.8825H50.2434L53.7837 21.6744H51.2609L50.6755 19.9447ZM50.0622 18.1035L48.8496 14.5188L47.6509 18.1035H50.0622Z" fill="#000A2C"/>
  <path
    d="M54.3873 17.7827C54.3873 16.9737 54.5499 16.267 54.8751 15.6626C55.2097 15.0581 55.6696 14.5932 56.255 14.2677C56.8497 13.9422 57.528 13.7795 58.29 13.7795C59.2657 13.7795 60.0787 14.0352 60.7292 14.5467C61.3889 15.0581 61.821 15.7788 62.0254 16.7087H59.4887C59.275 16.1136 58.8615 15.816 58.2482 15.816C57.8115 15.816 57.463 15.988 57.2028 16.3321C56.9426 16.6669 56.8126 17.1504 56.8126 17.7827C56.8126 18.4151 56.9426 18.9033 57.2028 19.2473C57.463 19.5821 57.8115 19.7495 58.2482 19.7495C58.8615 19.7495 59.275 19.4519 59.4887 18.8568H62.0254C61.821 19.7681 61.3889 20.4841 60.7292 21.0048C60.0694 21.5256 59.2564 21.786 58.29 21.786C57.528 21.786 56.8497 21.6232 56.255 21.2978C55.6696 20.9723 55.2097 20.5073 54.8751 19.9029C54.5499 19.2985 54.3873 18.5917 54.3873 17.7827Z"
    fill="#000A2C"/>
  <path
    d="M67.6351 19.6518V21.6744H66.4225C65.5583 21.6744 64.8846 21.4651 64.4015 21.0467C63.9183 20.6189 63.6767 19.9262 63.6767 18.9684V15.8718H62.7289V13.8911H63.6767V11.9941H66.0601V13.8911H67.6212V15.8718H66.0601V18.9963C66.0601 19.2287 66.1159 19.3961 66.2274 19.4984C66.3389 19.6007 66.5247 19.6518 66.7849 19.6518H67.6351Z"
    fill="#000A2C"/>
  <path
    d="M70.1614 13.0821C69.7433 13.0821 69.3995 12.9612 69.13 12.7194C68.8698 12.4684 68.7397 12.1615 68.7397 11.7988C68.7397 11.4269 68.8698 11.12 69.13 10.8782C69.3995 10.6272 69.7433 10.5016 70.1614 10.5016C70.5703 10.5016 70.9048 10.6272 71.165 10.8782C71.4344 11.12 71.5692 11.4269 71.5692 11.7988C71.5692 12.1615 71.4344 12.4684 71.165 12.7194C70.9048 12.9612 70.5703 13.0821 70.1614 13.0821ZM71.3462 13.8911V21.6744H68.9627V13.8911H71.3462Z"
    fill="#000A2C"/>
  <path
    d="M76.6137 21.786C75.8517 21.786 75.1641 21.6232 74.5509 21.2978C73.9469 20.9723 73.4683 20.5073 73.1152 19.9029C72.7714 19.2985 72.5995 18.5917 72.5995 17.7827C72.5995 16.983 72.7761 16.2809 73.1292 15.6765C73.4823 15.0628 73.9654 14.5932 74.5787 14.2677C75.192 13.9422 75.8796 13.7795 76.6416 13.7795C77.4035 13.7795 78.0912 13.9422 78.7044 14.2677C79.3177 14.5932 79.8009 15.0628 80.154 15.6765C80.5071 16.2809 80.6837 16.983 80.6837 17.7827C80.6837 18.5824 80.5025 19.2892 80.1401 19.9029C79.787 20.5073 79.2991 20.9723 78.6766 21.2978C78.0633 21.6232 77.3757 21.786 76.6137 21.786ZM76.6137 19.7216C77.069 19.7216 77.4546 19.5542 77.7706 19.2194C78.0958 18.8847 78.2584 18.4058 78.2584 17.7827C78.2584 17.1597 78.1004 16.6808 77.7845 16.346C77.4779 16.0113 77.0969 15.8439 76.6416 15.8439C76.177 15.8439 75.7914 16.0113 75.4847 16.346C75.1781 16.6715 75.0247 17.1504 75.0247 17.7827C75.0247 18.4058 75.1734 18.8847 75.4708 19.2194C75.7774 19.5542 76.1584 19.7216 76.6137 19.7216Z"
    fill="#000A2C"/>
  <path
    d="M86.6871 13.8074C87.5977 13.8074 88.3225 14.105 88.8615 14.7001C89.4097 15.286 89.6838 16.095 89.6838 17.1272V21.6744H87.3143V17.448C87.3143 16.9272 87.1796 16.5227 86.9101 16.2344C86.6406 15.9462 86.2782 15.802 85.8229 15.802C85.3676 15.802 85.0052 15.9462 84.7357 16.2344C84.4663 16.5227 84.3315 16.9272 84.3315 17.448V21.6744H81.9481V13.8911H84.3315V14.9233C84.5731 14.5792 84.8984 14.3096 85.3072 14.1143C85.7161 13.9097 86.176 13.8074 86.6871 13.8074Z"
    fill="#000A2C"/>
  <path
    d="M52.0414 28.5541C52.0414 29.1213 51.9114 29.6421 51.6512 30.1163C51.391 30.5813 50.9914 30.9579 50.4525 31.2461C49.9135 31.5344 49.2445 31.6785 48.4454 31.6785H46.9679V35.1936H44.5845V25.4017H48.4454C49.2259 25.4017 49.8857 25.5366 50.4246 25.8062C50.9636 26.0759 51.3678 26.4479 51.6372 26.9221C51.9067 27.3964 52.0414 27.9403 52.0414 28.5541ZM48.2642 29.7815C48.7195 29.7815 49.0587 29.6746 49.2817 29.4607C49.5047 29.2469 49.6162 28.9446 49.6162 28.5541C49.6162 28.1635 49.5047 27.8613 49.2817 27.6474C49.0587 27.4335 48.7195 27.3266 48.2642 27.3266H46.9679V29.7815H48.2642Z"
    fill="#000A2C"/>
  <path
    d="M56.8226 35.3051C56.0606 35.3051 55.373 35.1424 54.7597 34.817C54.1557 34.4915 53.6772 34.0265 53.3241 33.4221C52.9803 32.8177 52.8084 32.1109 52.8084 31.3019C52.8084 30.5022 52.9849 29.8001 53.338 29.1957C53.6911 28.582 54.1743 28.1124 54.7876 27.7869C55.4009 27.4614 56.0885 27.2987 56.8504 27.2987C57.6124 27.2987 58.3 27.4614 58.9133 27.7869C59.5266 28.1124 60.0098 28.582 60.3629 29.1957C60.716 29.8001 60.8925 30.5022 60.8925 31.3019C60.8925 32.1016 60.7113 32.8084 60.3489 33.4221C59.9958 34.0265 59.508 34.4915 58.8854 34.817C58.2721 35.1424 57.5845 35.3051 56.8226 35.3051ZM56.8226 33.2408C57.2779 33.2408 57.6635 33.0734 57.9794 32.7386C58.3047 32.4039 58.4673 31.925 58.4673 31.3019C58.4673 30.6789 58.3093 30.2 57.9934 29.8652C57.6867 29.5305 57.3058 29.3631 56.8504 29.3631C56.3858 29.3631 56.0002 29.5305 55.6936 29.8652C55.3869 30.1907 55.2336 30.6696 55.2336 31.3019C55.2336 31.925 55.3823 32.4039 55.6796 32.7386C55.9863 33.0734 56.3673 33.2408 56.8226 33.2408Z"
    fill="#000A2C"/>
  <path
    d="M64.5404 28.5122C64.7727 28.1496 65.0933 27.8567 65.5021 27.6335C65.911 27.4103 66.3895 27.2987 66.9378 27.2987C67.5789 27.2987 68.1597 27.4614 68.68 27.7869C69.2004 28.1124 69.6093 28.5773 69.9066 29.1818C70.2132 29.7862 70.3666 30.4883 70.3666 31.288C70.3666 32.0877 70.2132 32.7944 69.9066 33.4082C69.6093 34.0126 69.2004 34.4822 68.68 34.817C68.1597 35.1424 67.5789 35.3051 66.9378 35.3051C66.3988 35.3051 65.9203 35.1936 65.5021 34.9704C65.0933 34.7472 64.7727 34.4589 64.5404 34.1056V38.9039H62.157V27.4103H64.5404V28.5122ZM67.9413 31.288C67.9413 30.6928 67.7741 30.2279 67.4395 29.8931C67.1143 29.5491 66.7101 29.377 66.2269 29.377C65.753 29.377 65.3488 29.5491 65.0143 29.8931C64.6891 30.2372 64.5265 30.7068 64.5265 31.3019C64.5265 31.8971 64.6891 32.3667 65.0143 32.7107C65.3488 33.0548 65.753 33.2268 66.2269 33.2268C66.7008 33.2268 67.105 33.0548 67.4395 32.7107C67.7741 32.3574 67.9413 31.8831 67.9413 31.288Z"
    fill="#000A2C"/>
  <path
    d="M79.2969 27.4103V35.1936H76.9135V34.1335C76.6719 34.4775 76.342 34.7565 75.9239 34.9704C75.515 35.175 75.0597 35.2773 74.5579 35.2773C73.9632 35.2773 73.4382 35.1471 72.9829 34.8867C72.5276 34.617 72.1745 34.2311 71.9236 33.729C71.6727 33.2268 71.5473 32.6363 71.5473 31.9575V27.4103H73.9168V31.6367C73.9168 32.1574 74.0515 32.5619 74.321 32.8502C74.5905 33.1385 74.9528 33.2826 75.4082 33.2826C75.8728 33.2826 76.2398 33.1385 76.5093 32.8502C76.7787 32.5619 76.9135 32.1574 76.9135 31.6367V27.4103H79.2969Z"
    fill="#000A2C"/>
  <path d="M83.3923 24.8717V35.1936H81.0089V24.8717H83.3923Z" fill="#000A2C"/>
  <path
    d="M84.6457 31.288C84.6457 30.4883 84.7944 29.7862 85.0917 29.1818C85.3984 28.5773 85.8119 28.1124 86.3322 27.7869C86.8526 27.4614 87.4333 27.2987 88.0745 27.2987C88.6227 27.2987 89.1013 27.4103 89.5101 27.6335C89.9283 27.8567 90.2488 28.1496 90.4719 28.5122V27.4103H92.8553V35.1936H90.4719V34.0916C90.2395 34.4543 89.9143 34.7472 89.4962 34.9704C89.0873 35.1936 88.6088 35.3051 88.0605 35.3051C87.4287 35.3051 86.8526 35.1424 86.3322 34.817C85.8119 34.4822 85.3984 34.0126 85.0917 33.4082C84.7944 32.7944 84.6457 32.0877 84.6457 31.288ZM90.4719 31.3019C90.4719 30.7068 90.3046 30.2372 89.9701 29.8931C89.6449 29.5491 89.2453 29.377 88.7714 29.377C88.2975 29.377 87.8933 29.5491 87.5588 29.8931C87.2335 30.2279 87.0709 30.6928 87.0709 31.288C87.0709 31.8831 87.2335 32.3574 87.5588 32.7107C87.8933 33.0548 88.2975 33.2268 88.7714 33.2268C89.2453 33.2268 89.6449 33.0548 89.9701 32.7107C90.3046 32.3667 90.4719 31.8971 90.4719 31.3019Z"
    fill="#000A2C"/>
  <path
    d="M95.7783 26.6013C95.3601 26.6013 95.0163 26.4804 94.7468 26.2386C94.4867 25.9876 94.3566 25.6807 94.3566 25.318C94.3566 24.9461 94.4867 24.6392 94.7468 24.3974C95.0163 24.1464 95.3601 24.0208 95.7783 24.0208C96.1871 24.0208 96.5216 24.1464 96.7818 24.3974C97.0513 24.6392 97.186 24.9461 97.186 25.318C97.186 25.6807 97.0513 25.9876 96.7818 26.2386C96.5216 26.4804 96.1871 26.6013 95.7783 26.6013ZM96.963 27.4103V35.1936H94.5796V27.4103H96.963Z"
    fill="#000A2C"/>
  <path
    d="M101.074 28.7075C101.352 28.2798 101.701 27.945 102.119 27.7032C102.537 27.4521 103.002 27.3266 103.513 27.3266V29.8513H102.858C102.263 29.8513 101.817 29.9815 101.52 30.2418C101.222 30.4929 101.074 30.9393 101.074 31.5809V35.1936H98.6903V27.4103H101.074V28.7075Z"
    fill="#000A2C"/>
  <path
    d="M111.984 31.1764C111.984 31.3996 111.97 31.632 111.942 31.8738H106.548C106.585 32.3574 106.738 32.7293 107.008 32.9897C107.286 33.2408 107.626 33.3663 108.025 33.3663C108.62 33.3663 109.033 33.1152 109.266 32.6131H111.802C111.672 33.1245 111.435 33.5848 111.092 33.994C110.757 34.4031 110.334 34.724 109.823 34.9564C109.312 35.1889 108.741 35.3051 108.109 35.3051C107.347 35.3051 106.668 35.1424 106.074 34.817C105.479 34.4915 105.014 34.0265 104.68 33.4221C104.345 32.8177 104.178 32.1109 104.178 31.3019C104.178 30.4929 104.341 29.7862 104.666 29.1818C105.001 28.5773 105.465 28.1124 106.06 27.7869C106.655 27.4614 107.338 27.2987 108.109 27.2987C108.861 27.2987 109.53 27.4568 110.116 27.773C110.701 28.0891 111.157 28.5401 111.482 29.126C111.816 29.7118 111.984 30.3953 111.984 31.1764ZM109.544 30.5487C109.544 30.1396 109.405 29.8141 109.126 29.5723C108.847 29.3305 108.499 29.2097 108.081 29.2097C107.681 29.2097 107.342 29.3259 107.063 29.5584C106.794 29.7908 106.627 30.121 106.562 30.5487H109.544Z"
    fill="#000A2C"/>
  <path d="M27.5221 36.8803L20.6535 30.0066C16.8601 26.2104 16.8303 20.0853 20.587 16.3258V16.3258C24.3437 12.5663 30.4643 12.5961 34.2577 16.3923V16.3923C38.0512 20.1886 38.0809 26.3137 34.3242 30.0732L27.5221 36.8803Z" fill="#F4ED0F"/>
  <path
    fill-rule="evenodd"
    clip-rule="evenodd"
    d="M17.3817 25.0711L22.8024 30.4959L28.2231 25.0711C31.2168 22.0752 31.2168 17.2177 28.2231 14.2217C25.2293 11.2257 20.3754 11.2257 17.3817 14.2217C14.3879 17.2177 14.3879 22.0752 17.3817 25.0711ZM22.8024 33.7748L29.8613 26.7106C33.7599 22.8092 33.7599 16.4837 29.8613 12.5822C25.9628 8.68078 19.642 8.68078 15.7434 12.5822C11.8448 16.4837 11.8448 22.8092 15.7434 26.7106L22.8024 33.7748Z"
    fill="#000A2C"/>
</svg>

<svg width="127" height="48" fill="none" xmlns="http://www.w3.org/2000/svg"><path d="M50.675 19.945h-3.651l-.586 1.73h-2.495l3.54-9.793h2.76l3.54 9.792h-2.522l-.586-1.73Zm-.613-1.841-1.212-3.585-1.2 3.585h2.412Zm4.325-.321c0-.81.163-1.516.488-2.12a3.497 3.497 0 0 1 1.38-1.395c.595-.326 1.273-.489 2.035-.489.976 0 1.789.256 2.44.768.659.511 1.091 1.232 1.295 2.162H59.49c-.214-.595-.627-.893-1.24-.893-.438 0-.786.172-1.046.516-.26.335-.39.818-.39 1.45 0 .633.13 1.121.39 1.465.26.335.608.503 1.045.503.614 0 1.027-.298 1.24-.893h2.537c-.204.911-.636 1.627-1.296 2.148-.66.52-1.473.781-2.439.781-.762 0-1.44-.163-2.035-.488a3.497 3.497 0 0 1-1.38-1.395c-.325-.604-.488-1.311-.488-2.12Zm13.248 1.869v2.022h-1.213c-.864 0-1.537-.209-2.02-.627-.484-.428-.725-1.12-.725-2.079v-3.096h-.948v-1.98h.948v-1.898h2.383v1.897h1.561v1.98h-1.56v3.125c0 .233.055.4.166.502.112.103.298.154.558.154h.85Zm2.526-6.57c-.418 0-.761-.12-1.031-.363a1.23 1.23 0 0 1-.39-.92c0-.372.13-.679.39-.92.27-.252.613-.377 1.031-.377.41 0 .744.125 1.004.376.27.242.404.549.404.92 0 .364-.135.67-.404.921-.26.242-.595.363-1.004.363Zm1.185.81v7.782h-2.383v-7.783h2.383Zm5.268 7.894c-.762 0-1.45-.163-2.063-.488a3.633 3.633 0 0 1-1.436-1.395c-.344-.604-.515-1.311-.515-2.12 0-.8.176-1.502.53-2.107a3.583 3.583 0 0 1 1.449-1.408c.613-.326 1.3-.489 2.063-.489.761 0 1.45.163 2.062.489a3.583 3.583 0 0 1 1.45 1.409c.353.604.53 1.306.53 2.106 0 .8-.181 1.506-.544 2.12a3.587 3.587 0 0 1-1.463 1.395c-.614.325-1.301.488-2.063.488Zm0-2.064c.455 0 .84-.168 1.157-.503.325-.334.487-.813.487-1.436s-.158-1.102-.474-1.437a1.487 1.487 0 0 0-1.142-.502c-.465 0-.85.167-1.157.502-.307.326-.46.804-.46 1.437 0 .623.148 1.102.446 1.436.306.335.687.503 1.143.503Zm10.073-5.915c.91 0 1.636.298 2.175.893.548.586.822 1.395.822 2.427v4.547h-2.37v-4.226c0-.52-.134-.925-.404-1.214-.27-.288-.632-.432-1.087-.432-.455 0-.818.144-1.087.432-.27.289-.404.693-.404 1.214v4.226h-2.384v-7.783h2.384v1.032a2.46 2.46 0 0 1 .975-.809 3.04 3.04 0 0 1 1.38-.307ZM52.041 28.554c0 .567-.13 1.088-.39 1.562-.26.465-.66.842-1.199 1.13-.538.288-1.207.433-2.007.433h-1.477v3.515h-2.384v-9.792h3.861c.78 0 1.44.135 1.98.404.539.27.943.642 1.212 1.116.27.474.404 1.018.404 1.632Zm-3.777 1.228c.455 0 .795-.107 1.018-.321.223-.214.334-.516.334-.907 0-.39-.111-.693-.334-.907-.223-.213-.563-.32-1.018-.32h-1.296v2.454h1.296Zm8.559 5.523c-.762 0-1.45-.163-2.063-.488a3.633 3.633 0 0 1-1.436-1.395c-.344-.604-.516-1.311-.516-2.12 0-.8.177-1.502.53-2.106a3.583 3.583 0 0 1 1.45-1.41c.613-.325 1.3-.487 2.062-.487.762 0 1.45.162 2.063.488a3.583 3.583 0 0 1 1.45 1.409c.353.604.53 1.306.53 2.106 0 .8-.182 1.506-.544 2.12a3.586 3.586 0 0 1-1.464 1.395c-.613.325-1.3.488-2.062.488Zm0-2.064c.455 0 .84-.168 1.156-.502.326-.335.488-.814.488-1.437 0-.623-.158-1.102-.474-1.437a1.487 1.487 0 0 0-1.143-.502c-.464 0-.85.168-1.156.502-.307.326-.46.805-.46 1.437 0 .623.148 1.102.446 1.437.306.334.687.502 1.143.502Zm7.717-4.729c.233-.362.553-.655.962-.878.409-.224.888-.335 1.436-.335.64 0 1.222.162 1.742.488.52.325.93.79 1.227 1.395.306.604.46 1.306.46 2.106 0 .8-.154 1.506-.46 2.12-.298.605-.707 1.074-1.227 1.409a3.219 3.219 0 0 1-1.742.488c-.54 0-1.018-.111-1.436-.335a2.635 2.635 0 0 1-.962-.864v4.798h-2.383V27.41h2.383v1.102Zm3.401 2.776c0-.595-.167-1.06-.502-1.395a1.6 1.6 0 0 0-1.212-.516 1.63 1.63 0 0 0-1.213.516c-.325.344-.487.814-.487 1.409 0 .595.162 1.065.487 1.409a1.63 1.63 0 0 0 1.213.516 1.63 1.63 0 0 0 1.212-.516c.335-.354.502-.828.502-1.423Zm11.356-3.878v7.784h-2.383v-1.06a2.663 2.663 0 0 1-.99.836 3.01 3.01 0 0 1-1.366.307c-.595 0-1.12-.13-1.575-.39a2.725 2.725 0 0 1-1.06-1.158c-.25-.502-.376-1.093-.376-1.771V27.41h2.37v4.227c0 .52.135.925.404 1.213.27.288.632.433 1.087.433.465 0 .832-.145 1.101-.433.27-.288.404-.693.404-1.213V27.41h2.384Zm4.095-2.538v10.322H81.01V24.872h2.383Zm1.254 6.416c0-.8.148-1.502.446-2.106.306-.605.72-1.07 1.24-1.395a3.218 3.218 0 0 1 1.743-.488c.548 0 1.026.111 1.435.335.418.223.739.516.962.878V27.41h2.383v7.784h-2.383v-1.102a2.563 2.563 0 0 1-.976.878c-.409.224-.887.335-1.435.335a3.195 3.195 0 0 1-1.729-.488c-.52-.335-.934-.804-1.24-1.409-.298-.614-.446-1.32-.446-2.12Zm5.826.014c0-.595-.167-1.065-.502-1.409a1.585 1.585 0 0 0-1.199-.516 1.63 1.63 0 0 0-1.212.516c-.325.335-.488.8-.488 1.395s.163 1.07.488 1.423a1.63 1.63 0 0 0 1.212.516c.474 0 .874-.172 1.2-.516.334-.344.5-.814.5-1.41Zm5.306-4.701c-.418 0-.762-.12-1.031-.362a1.23 1.23 0 0 1-.39-.921c0-.372.13-.679.39-.92.27-.252.613-.377 1.031-.377.41 0 .744.125 1.004.376.27.242.404.55.404.921 0 .363-.135.67-.404.92-.26.242-.595.363-1.004.363Zm1.185.81v7.783H94.58V27.41h2.383Zm4.111 1.296a3.073 3.073 0 0 1 1.045-1.004 2.656 2.656 0 0 1 1.394-.376v2.524h-.655c-.595 0-1.041.13-1.338.39-.298.252-.446.698-.446 1.34v3.613H98.69V27.41h2.384v1.297Zm10.91 2.469c0 .224-.014.456-.042.698h-5.394c.037.483.19.855.46 1.116.278.25.618.376 1.017.376.595 0 1.008-.25 1.241-.753h2.536c-.13.511-.367.972-.71 1.381-.335.41-.758.73-1.269.962a4.091 4.091 0 0 1-1.714.35c-.762 0-1.441-.164-2.035-.489a3.467 3.467 0 0 1-1.394-1.395c-.335-.604-.502-1.311-.502-2.12 0-.81.163-1.516.488-2.12a3.473 3.473 0 0 1 1.394-1.395c.595-.326 1.278-.488 2.049-.488.752 0 1.421.158 2.007.474a3.36 3.36 0 0 1 1.366 1.353c.334.586.502 1.27.502 2.05Zm-2.44-.627c0-.41-.139-.735-.418-.977-.279-.241-.627-.362-1.045-.362-.4 0-.739.116-1.018.348-.269.233-.436.563-.501.99h2.982Z" fill="#000A2C"/><path d="m27.522 36.88-6.868-6.873c-3.794-3.797-3.824-9.922-.067-13.681 3.757-3.76 9.877-3.73 13.67.066 3.794 3.797 3.824 9.922.067 13.681l-6.802 6.807Z" fill="#F4ED0F"/><path fill-rule="evenodd" clip-rule="evenodd" d="m17.382 25.071 5.42 5.425 5.421-5.425a7.676 7.676 0 0 0 0-10.85 7.662 7.662 0 0 0-10.841 0 7.676 7.676 0 0 0 0 10.85Zm5.42 8.704 7.06-7.064c3.898-3.902 3.898-10.227 0-14.129a9.978 9.978 0 0 0-14.119 0c-3.898 3.902-3.898 10.227 0 14.129l7.06 7.064Z" fill="#000A2C"/></svg>
